src/assets/svg/icons/fa/nuevos/classic/light/engine-warning classic light.svg

<svg xmlns="http://www.w3.org/2000/svg" viewBox="0 0 640 512"><!--! Font Awesome Pro 6.4.0 by @fontawesome - https://fontawesome.com License - https://fontawesome.com/license (Commercial License) Copyright 2023 Fonticons, Inc. --><path d="M416 80c0 8.8-7.2 16-16 16l-80 0v32h16 60.6c12.6 0 25 3.7 35.5 10.7L483.5 173c17.8 11.9 28.5 31.9 28.5 53.3V384c0 35.3-28.7 64-64 64H254.8c-19.4 0-37.8-8.8-50-24l-32-40H144c-26.5 0-48-21.5-48-48V272H88 32v80c0 8.8-7.2 16-16 16s-16-7.2-16-16V160c0-8.8 7.2-16 16-16s16 7.2 16 16v80H88h8V176c0-26.5 21.5-48 48-48h16H288V96l-80 0c-8.8 0-16-7.2-16-16s7.2-16 16-16H400c8.8 0 16 7.2 16 16zM304 160H160 144c-8.8 0-16 7.2-16 16V336c0 8.8 7.2 16 16 16h28.8c9.7 0 18.9 4.4 25 12l32 40c6.1 7.6 15.3 12 25 12H448c17.7 0 32-14.3 32-32V226.3c0-10.7-5.3-20.7-14.2-26.6l-51.4-34.3c-5.3-3.5-11.4-5.4-17.8-5.4H336 304l0 0 0 0zm16 48v80c0 8.8-7.2 16-16 16s-16-7.2-16-16V208c0-8.8 7.2-16 16-16s16 7.2 16 16zM304 328a24 24 0 1 1 0 48 24 24 0 1 1 0-48zM576 224V416h32V224H576zm-32 0c0-17.7 14.3-32 32-32h32c17.7 0 32 14.3 32 32V416c0 17.7-14.3 32-32 32H576c-17.7 0-32-14.3-32-32V224z"/></svg>

<svg xmlns="http://www.w3.org/2000/svg" viewBox="0 0 640 512"><path d="M320 288C320 296.8 312.8 304 304 304C295.2 304 288 296.8 288 288V208C288 199.2 295.2 192 304 192C312.8 192 320 199.2 320 208V288zM280 352C280 338.7 290.7 328 304 328C317.3 328 328 338.7 328 352C328 365.3 317.3 376 304 376C290.7 376 280 365.3 280 352zM416 80C416 88.84 408.8 96 400 96H320V128H396.6C409.3 128 421.6 131.7 432.1 138.7L483.5 173C501.3 184.9 512 204.9 512 226.3V384C512 419.3 483.3 448 448 448H254.8C235.3 448 216.9 439.2 204.8 423.1L172.8 384H144C117.5 384 96 362.5 96 336V272H32V352C32 360.8 24.84 368 16 368C7.164 368 0 360.8 0 352V160C0 151.2 7.164 144 16 144C24.84 144 32 151.2 32 160V240H96V176C96 149.5 117.5 128 144 128H288V96H208C199.2 96 192 88.84 192 80C192 71.16 199.2 64 208 64H400C408.8 64 416 71.16 416 80zM144 160C135.2 160 128 167.2 128 176V336C128 344.8 135.2 352 144 352H188.2L229.8 403.1C235.8 411.6 245 416 254.8 416H448C465.7 416 480 401.7 480 384V226.3C480 215.6 474.7 205.6 465.8 199.6L414.4 165.4C409.1 161.9 402.9 160 396.6 160H144zM544 224C544 206.3 558.3 192 576 192H608C625.7 192 640 206.3 640 224V416C640 433.7 625.7 448 608 448H576C558.3 448 544 433.7 544 416V224zM576 416H608V224H576V416z"/></svg>
